X:13
T:Hanter Dro
C:Trad 3, 24
M:3/4
L:1/8
K:C
cc/B/ ce ed|ce/g/ gf/e/ dd|\
cc/B/ ce ed|1 ce/g/ g/g/f/e/ d2:|2  ce/g/ g/g/f/e/ dd/e/||
|:ff/e/ fa g2|eg/f/ ed cd/e/|\
ff/e/ fa g/f/e/c/|1 d/d/e/f/ ed cd/e/:|2  d/d/e/f/ ed c2||
